storage/app/icons/phosphoricons/duotone/cardholder-duotone.svg

<svg xmlns="http://www.w3.org/2000/svg" fill="currentColor" viewBox="0 0 256 256"><path d="M224 72v48h-64a32 32 0 0 1-64 0H32V72a16 16 0 0 1 16-16h160a16 16 0 0 1 16 16" opacity=".2"/><path d="M208 48H48a24 24 0 0 0-24 24v112a24 24 0 0 0 24 24h160a24 24 0 0 0 24-24V72a24 24 0 0 0-24-24M40 96h176v16h-56a8 8 0 0 0-8 8 24 24 0 0 1-48 0 8 8 0 0 0-8-8H40Zm8-32h160a8 8 0 0 1 8 8v8H40v-8a8 8 0 0 1 8-8m160 128H48a8 8 0 0 1-8-8v-56h48.8a40 40 0 0 0 78.4 0H216v56a8 8 0 0 1-8 8"/></svg>

<svg xmlns="http://www.w3.org/2000/svg" viewBox="0 0 256 256" fill="currentColor"><path d="M224,72v48H160a32,32,0,0,1-64,0H32V72A16,16,0,0,1,48,56H208A16,16,0,0,1,224,72Z" opacity="0.2"/><path d="M208,48H48A24,24,0,0,0,24,72V184a24,24,0,0,0,24,24H208a24,24,0,0,0,24-24V72A24,24,0,0,0,208,48ZM40,96H216v16H160a8,8,0,0,0-8,8,24,24,0,0,1-48,0,8,8,0,0,0-8-8H40Zm8-32H208a8,8,0,0,1,8,8v8H40V72A8,8,0,0,1,48,64ZM208,192H48a8,8,0,0,1-8-8V128H88.8a40,40,0,0,0,78.4,0H216v56A8,8,0,0,1,208,192Z"/></svg>
